Numix-GalliumOS/22/status/megasync-status-syncing.svg

<?xml version="1.0" encoding="UTF-8" standalone="no"?>
<svg
   xmlns:dc="http://purl.org/dc/elements/1.1/"
   xmlns:cc="http://creativecommons.org/ns#"
   xmlns:rdf="http://www.w3.org/1999/02/22-rdf-syntax-ns#"
   xmlns:svg="http://www.w3.org/2000/svg"
   xmlns="http://www.w3.org/2000/svg"
   xmlns:sodipodi="http://sodipodi.sourceforge.net/DTD/sodipodi-0.dtd"
   xmlns:inkscape="http://www.inkscape.org/namespaces/inkscape"
   width="22"
   viewBox="0 0 6.208889 6.208889"
   height="22"
   id="svg2"
   version="1.1"
   inkscape:version="0.91 r"
   sodipodi:docname="megasync-status-syncing.svg">
  <metadata
     id="metadata399">
    <rdf:RDF>
      <cc:Work
         rdf:about="">
        <dc:format>image/svg+xml</dc:format>
        <dc:type
           rdf:resource="http://purl.org/dc/dcmitype/StillImage" />
        <dc:title />
      </cc:Work>
    </rdf:RDF>
  </metadata>
  <sodipodi:namedview
     pagecolor="#ffffff"
     bordercolor="#666666"
     borderopacity="1"
     objecttolerance="10"
     gridtolerance="10"
     guidetolerance="10"
     inkscape:pageopacity="0"
     inkscape:pageshadow="2"
     inkscape:window-width="1920"
     inkscape:window-height="1056"
     id="namedview397"
     showgrid="true"
     inkscape:zoom="20.227273"
     inkscape:cx="-4.3462804"
     inkscape:cy="6.689462"
     inkscape:window-x="0"
     inkscape:window-y="24"
     inkscape:window-maximized="1"
     inkscape:current-layer="svg2"
     inkscape:object-paths="true"
     inkscape:snap-intersection-paths="true"
     inkscape:object-nodes="true"
     inkscape:snap-smooth-nodes="true"
     inkscape:snap-midpoints="true"
     inkscape:snap-object-midpoints="true"
     inkscape:snap-center="true">
    <inkscape:grid
       type="xygrid"
       id="grid3000" />
  </sodipodi:namedview>
  <defs
     id="defs4">
    <clipPath
       id="clipPath-408241621">
      <g
         transform="translate(0,-1004.3622)"
         id="g3616">
        <path
           style="fill:#1890d0"
           inkscape:connector-curvature="0"
           d="m -24,13 c 0,1.105 -0.672,2 -1.5,2 -0.828,0 -1.5,-0.895 -1.5,-2 0,-1.105 0.672,-2 1.5,-2 0.828,0 1.5,0.895 1.5,2 z"
           transform="matrix(15.333333,0,0,11.5,414.99999,878.8622)"
           id="path3618" />
      </g>
    </clipPath>
    <clipPath
       id="clipPath-408241621-1">
      <g
         transform="translate(0,-1004.3622)"
         id="g3616-0">
        <path
           style="fill:#1890d0"
           inkscape:connector-curvature="0"
           d="m -24,13 c 0,1.105 -0.672,2 -1.5,2 -0.828,0 -1.5,-0.895 -1.5,-2 0,-1.105 0.672,-2 1.5,-2 0.828,0 1.5,0.895 1.5,2 z"
           transform="matrix(15.333333,0,0,11.5,414.99999,878.8622)"
           id="path3618-5" />
      </g>
    </clipPath>
  </defs>
  <path
     style="opacity:1;fill:#ececec;fill-opacity:1;fill-rule:nonzero;stroke:none;stroke-width:0.21166666;stroke-linecap:butt;stroke-linejoin:miter;stroke-miterlimit:4;stroke-dasharray:none;stroke-dashoffset:0;stroke-opacity:1"
     d="M 11 3 C 6.5817219 2.9999998 2.9999996 6.5817223 3 11 C 2.9999999 12.606124 3.4782232 14.098403 4.2929688 15.351562 L 6.9414062 10.048828 L 7 9.9257812 L 7 9.84375 L 6.1660156 9.3632812 L 6.6640625 8.4980469 C 6.7650465 8.3231374 6.8804151 8.1591921 7 8 C 7.9759818 6.7007678 9.5362856 5.9389922 11.183594 6 C 12.463108 6.0473857 13.440244 6.8938079 14.318359 7.7714844 L 17.705078 6.6464844 C 16.278317 4.4535878 13.811196 2.9999999 11 3 z M 17.707031 6.6484375 L 15 12.076172 L 15 12.15625 L 15.833984 12.636719 L 15.335938 13.501953 C 15.234953 13.676863 15.119585 13.840808 15 14 C 14.024018 15.299232 12.463715 16.061007 10.816406 16 C 9.5368957 15.95261 8.5597561 15.10619 7.6816406 14.228516 L 4.296875 15.355469 C 5.7238628 17.547111 8.189763 19 11 19 C 15.418278 19 19 15.418278 19 11 C 19 9.3938765 18.521777 7.901597 17.707031 6.6484375 z "
     transform="scale(0.28222222,0.28222222)"
     id="path4138" />
  <g
     id="g4161"
     transform="matrix(0.28222222,0,0,0.28222222,-4.9598351,0.24694452)">
    <path
       id="path22"
       d="m 28.720703,6.1249998 c 1.308665,0.048466 2.499789,0.7371834 3.203125,1.8183593 L 33.3125,7.4804685 31.740234,10.626953 28.595703,9.0527341 29.873047,8.6269529 C 29.534785,8.3329009 29.111948,8.1422398 28.646484,8.1249998 27.904043,8.0975038 27.21132,8.4796317 26.839844,9.1230467 l -1.732422,-1 c 0.740096,-1.2818842 2.134103,-2.0528279 3.613281,-1.9980469 z m -3.3125,3.4980471 3.144531,1.5742181 -1.277343,0.425782 c 0.338262,0.294052 0.7611,0.484713 1.226562,0.501953 0.742443,0.0275 1.435165,-0.354632 1.806641,-0.998047 l 1.732422,1 C 31.30092,13.408837 29.906913,14.179781 28.427734,14.125 27.11907,14.07653 25.927946,13.387816 25.22461,12.306641 l -1.388672,0.46289 z"
       style="opacity:1;fill:#ececec;fill-opacity:1;fill-rule:nonzero;stroke:none"
       inkscape:connector-curvature="0"
       sodipodi:nodetypes="scccccsccscccsccsccc" />
    <g
       transform="matrix(1.25,0,0,-1.25,-129.20625,298.11625)"
       id="g48" />
    <g
       transform="matrix(0.42297932,0,0,0.42297932,-11.083711,3.1945516)"
       clip-path="url(#clipPath-408241621)"
       id="g3650">
      <!-- color: #004794 -->
      <g
         id="g3652" />
    </g>
  </g>
  <g
     id="g4161-5"
     transform="matrix(0.28222222,0,0,0.28222222,-4.9598351,0.24694462)"
     style="stroke:#000000;stroke-opacity:1;stroke-width:1.00000001;stroke-miterlimit:4;stroke-dasharray:none">
    <g
       transform="matrix(1.25,0,0,-1.25,-129.20625,298.11625)"
       id="g48-0"
       style="stroke:#000000;stroke-opacity:1;stroke-width:0.80000001;stroke-miterlimit:4;stroke-dasharray:none" />
    <g
       transform="matrix(0.42297932,0,0,0.42297932,-11.083711,3.1945516)"
       clip-path="url(#clipPath-408241621-1)"
       id="g3650-9"
       style="stroke:#000000;stroke-opacity:1;stroke-width:2.36418181;stroke-miterlimit:4;stroke-dasharray:none">
      <!-- color: #004794 -->
      <g
         id="g3652-0"
         style="stroke:#000000;stroke-opacity:1;stroke-width:2.36418181;stroke-miterlimit:4;stroke-dasharray:none" />
    </g>
  </g>
</svg>

<svg xmlns="http://www.w3.org/2000/svg" width="22" viewBox="0 0 6.208889 6.208889" height="22">
 <path d="m 11 3 c -4.418 0 -8 3.582 -8 8 c 0 1.606 0.478 3.098 1.293 4.352 l 2.648 -5.303 l 0.059 -0.123 l 0 -0.082 l -0.834 -0.48 l 0.498 -0.865 c 0.101 -0.175 0.216 -0.339 0.336 -0.498 c 0.976 -1.299 2.536 -2.061 4.184 -2 c 1.28 0.047 2.257 0.894 3.135 1.771 l 3.387 -1.125 c -1.427 -2.193 -3.894 -3.646 -6.705 -3.646 z m 6.707 3.648 l -2.707 5.428 l 0 0.08 l 0.834 0.48 l -0.498 0.865 c -0.101 0.175 -0.216 0.339 -0.336 0.498 c -0.976 1.299 -2.536 2.061 -4.184 2 c -1.28 -0.047 -2.257 -0.894 -3.135 -1.771 l -3.385 1.127 c 1.427 2.192 3.893 3.645 6.703 3.645 c 4.418 0 8 -3.582 8 -8 c 0 -1.606 -0.478 -3.098 -1.293 -4.352 z" transform="scale(0.28222222,0.28222222)" style="fill:#ececec;opacity:1;fill-opacity:1;stroke:none;fill-rule:nonzero"/>
 <g transform="matrix(0.28222222,0,0,0.28222222,-4.9598351,0.24694452)">
  <path d="m 28.721 6.125 c 1.309 0.048 2.5 0.737 3.203 1.818 l 1.389 -0.463 -1.572 3.146 -3.145 -1.574 1.277 -0.426 c -0.338 -0.294 -0.761 -0.485 -1.227 -0.502 -0.742 -0.027 -1.435 0.355 -1.807 0.998 l -1.732 -1 c 0.74 -1.282 2.134 -2.053 3.613 -1.998 z m -3.313 3.498 3.145 1.574 -1.277 0.426 c 0.338 0.294 0.761 0.485 1.227 0.502 0.742 0.027 1.435 -0.355 1.807 -0.998 l 1.732 1 c -0.74 1.282 -2.134 2.053 -3.613 1.998 -1.309 -0.048 -2.5 -0.737 -3.203 -1.818 l -1.389 0.463 z" style="fill:#ececec;opacity:1;fill-opacity:1;stroke:none;fill-rule:nonzero"/>
  <g transform="matrix(0.42297932,0,0,0.42297932,-11.083711,3.1945516)">
   <!-- color: #004794 -->
  </g>
 </g>
 <g transform="matrix(0.28222222,0,0,0.28222222,-4.9598351,0.24694462)" style="stroke-dasharray:none;stroke-opacity:1;stroke-miterlimit:4;stroke:#000;stroke-width:1">
  <g transform="matrix(0.42297932,0,0,0.42297932,-11.083711,3.1945516)" style="stroke:#000;stroke-width:2.364">
   <!-- color: #004794 -->
  </g>
 </g>
</svg>
